X:46
T: Uncle Pen
C: Bill Monroe - Arr. John Baldry
S: MandoZine TablEdit Archives
S: http://www.mandozine.com/music/tabledit_files/UnclePen-A-Baldry.tef
L: 1/8
Q: 448
M: 4/4
K: A
 z6 AF |: "A"EF ED CB, A,C | EF AB c2 AB | cB Ac BA FG | AB AF E2 AF | EF ED CB, A,C |
 EF AB c2 AB | cB Ac BA FC | "E"EF GB "A"A2 [eA][eA] |1 "D"[fd][fd] z[fd] [f2d2] cd |
 "A"ec Ac e2 FG | A2 a2 f2 ed | cA cB A2 AF | EF ED CB, A,C | EF AB c2 AB | cB Ac BA FC |
 "E"EF GB "A"A2 AF | ED CB, | A,6 AF :|2 "D"[fd][fd] z[fd] [f2d2] [fd]A | "A"[ec]e zc [e2c2] [e2c2] |
 (3aaa aa ae ee | =c=c zA E2 [AE][AE] | EE EF [A2A2] [AA][AA] | [ec]e z[ec] [e2e2] [ee][ee] |
 af e=c BA FF | "E"E2 F2 "A"[A4E4] |
